assets/img/icons/mail.svg

<svg width="21" height="21" viewBox="0 0 21 21" fill="none" xmlns="http://www.w3.org/2000/svg">
<g clip-path="url(#clip0_973_3816)">
<path d="M17.9883 6.60742C17.9943 6.65438 18 6.70106 18 6.75V14.25L17.9951 14.4043C17.9561 15.1765 17.6333 15.9097 17.084 16.459C16.5346 17.0083 15.8015 17.3311 15.0293 17.3701L14.875 17.375H6.125C5.29656 17.374 4.50183 17.0448 3.91602 16.459C3.36672 15.9097 3.04391 15.1765 3.00488 14.4043L3 14.25V6.75C3.00001 6.70106 3.00573 6.65438 3.01172 6.60742C3.01785 6.55935 3.02395 6.51317 3.02832 6.46387L8.28906 11.7246C8.87562 12.3093 9.67168 12.6387 10.5 12.6387C11.1344 12.6387 11.7491 12.4466 12.2656 12.0938L12.4844 11.9297L12.707 11.7285L12.71 11.7246L17.9717 6.46387C17.9761 6.51317 17.9822 6.55935 17.9883 6.60742ZM15.0752 3.63281C15.5408 3.66417 15.9948 3.79947 16.4023 4.03027C16.8101 4.26131 17.1603 4.58055 17.4268 4.96387L17.5352 5.13184L11.8262 10.8398L11.7061 10.9502C11.4578 11.1581 11.1607 11.2982 10.8447 11.3574L10.6855 11.3799L10.4971 11.3877C10.0011 11.3869 9.52527 11.1907 9.17383 10.8408L3.46484 5.13184C3.74125 4.67353 4.13188 4.29424 4.59766 4.03027C5.06338 3.76651 5.58973 3.62652 6.125 3.625H14.875L15.0752 3.63281Z" fill="white"/>
</g>
<defs>
<clipPath id="clip0_973_3816">
<rect width="15" height="15" fill="white" transform="translate(3 3)"/>
</clipPath>
</defs>
</svg>

<svg width="21" height="21" fill="none" xmlns="http://www.w3.org/2000/svg"><g clip-path="url(#a)"><path d="M17.988 6.607c.006.047.012.094.012.143v7.5l-.005.154a3.129 3.129 0 0 1-2.966 2.966l-.154.005h-8.75a3.13 3.13 0 0 1-3.12-2.97L3 14.25v-7.5c0-.049.006-.096.012-.143.006-.048.012-.094.016-.143l5.261 5.26a3.134 3.134 0 0 0 3.977.37l.218-.164.223-.201.003-.004 5.262-5.261c.004.05.01.095.016.143Zm-2.913-2.974a3.119 3.119 0 0 1 2.352 1.33l.108.169-5.709 5.708-.12.11a1.883 1.883 0 0 1-.861.407l-.16.023-.188.008a1.88 1.88 0 0 1-1.323-.547l-5.71-5.71a3.118 3.118 0 0 1 2.661-1.506h8.75l.2.008Z" fill="#fff"/></g><defs><clipPath id="a"><path fill="#fff" transform="translate(3 3)" d="M0 0h15v15H0z"/></clipPath></defs></svg>
